polaris-icons/icons/MetaobjectIcon.svg

<svg xmlns="http://www.w3.org/2000/svg" viewBox="0 0 20 20">
  <path fill-rule="evenodd" d="M16 6.5V5C16 4.44772 15.5523 4 15 4H12.5C11.9477 4 11.5 4.44772 11.5 5V6.5H11C10.4477 6.5 10 6.94772 10 7.5V11H8.5V9.5C8.5 8.94772 8.05228 8.5 7.5 8.5H5C4.44772 8.5 4 8.94772 4 9.5V11H3.5C2.94771 11 2.5 11.4477 2.5 12V16C2.5 16.5523 2.94772 17 3.5 17H16.5C17.0523 17 17.5 16.5523 17.5 16V12C17.5 11.9137 17.4891 11.8299 17.4685 11.75C17.4891 11.6701 17.5 11.5863 17.5 11.5V7.5C17.5 6.94772 17.0523 6.5 16.5 6.5H16ZM14.5 6.5V5.5H13V6.5H14.5ZM16 8V11H11.5V8H16ZM5.5 11H7V10H5.5V11ZM4 12.5V15.5H16V12.5H4Z"/>
</svg>

<svg xmlns="http://www.w3.org/2000/svg" viewBox="0 0 20 20"><path fill-rule="evenodd" d="M16 6.5v-1.5c0-.552-.448-1-1-1h-2.5c-.552 0-1 .448-1 1v1.5h-.5c-.552 0-1 .448-1 1v3.5h-1.5v-1.5c0-.552-.448-1-1-1h-2.5c-.552 0-1 .448-1 1v1.5h-.5c-.552 0-1 .448-1 1v4c0 .552.448 1 1 1h13c.552 0 1-.448 1-1v-4c0-.086-.01-.17-.032-.25.021-.08.032-.164.032-.25v-4c0-.552-.448-1-1-1h-.5Zm-1.5 0v-1h-1.5v1h1.5Zm1.5 1.5v3h-4.5v-3h4.5Zm-10.5 3h1.5v-1h-1.5v1Zm-1.5 1.5v3h12v-3h-12Z"/></svg>
